src/containers/site/SiteSafetyScreen/asset/safety_feature_2.svg

<svg width="77" height="67" viewBox="0 0 77 67" fill="none" xmlns="http://www.w3.org/2000/svg">
<path d="M64.198 13.1275C64.198 13.1275 26.7375 13.1275 24.896 13.1275C22.9145 13.1275 21.5392 7.70532 19.4878 7.70532H4.59224C3.10035 7.70532 1.88818 8.92065 1.88818 10.4164V15.8387V56.5988V62.021C1.88818 63.5168 3.10035 64.7321 4.59224 64.7321H64.198C65.6899 64.7321 66.902 63.5168 66.902 62.021V15.8387C66.902 14.3429 65.6899 13.1275 64.198 13.1275Z" fill="url(#paint0_linear)"/>
<path fill-rule="evenodd" clip-rule="evenodd" d="M4.56892 66.6256H64.198C66.7155 66.6256 68.7669 64.5689 68.7436 62.0214V15.839C68.7436 13.3149 66.6922 11.2582 64.1747 11.2582H25.0824C24.7561 10.9777 24.15 10.0428 23.8003 9.45854L23.7764 9.42051C22.7103 7.72406 21.5238 5.83594 19.4645 5.83594H4.56892C2.05135 5.83594 0 7.89264 0 10.4168V62.0448C0 64.5689 2.05135 66.6256 4.56892 66.6256ZM3.72949 10.4166C3.72949 9.94914 4.10247 9.5752 4.56868 9.5752H19.3011C19.6508 9.85565 20.2802 10.8373 20.6531 11.4449C20.6688 11.4696 20.6844 11.4944 20.7001 11.5192C21.737 13.1603 22.8979 14.9974 24.8957 14.9974H64.1744C64.6406 14.9974 65.0136 15.3714 65.0136 15.8388V62.0445C65.0136 62.512 64.6406 62.8859 64.1744 62.8859H4.56868C4.10247 62.8859 3.72949 62.512 3.72949 62.0445V10.4166Z" fill="url(#paint1_linear)"/>
<path d="M63.8199 22.8125H4.85397C4.29921 22.8125 3.83691 23.2842 3.83691 23.8502V61.7748C3.83691 62.3408 4.29921 62.8125 4.85397 62.8125H63.8199C64.3746 62.8125 64.8369 62.3408 64.8369 61.7748V23.8502C64.8369 23.2842 64.3746 22.8125 63.8199 22.8125Z" fill="#FBF8F6"/>
<path d="M44.2358 38.4602L41.1971 41.4854L46.2851 46.5509L40.1842 52.6248L35.0962 47.5593L31.2802 51.3584C29.5607 53.0704 26.8047 53.0704 25.0851 51.3819L25.1558 51.4522C23.4598 49.7637 23.4598 46.9965 25.1793 45.2845L49.8891 20.6841C48.8762 18.7376 48.3109 16.5097 48.3109 14.1646C48.3109 6.33186 54.6945 0 62.5385 0C70.3825 0 76.766 6.35531 76.766 14.1646C76.766 21.9739 70.3825 28.3292 62.5385 28.3292C60.1829 28.3292 57.9451 27.7664 55.99 26.758L50.3367 32.3863L54.4118 36.4434L48.3109 42.5173L44.2358 38.4602Z" fill="url(#paint2_linear)"/>
<path d="M66.3382 17.7619C68.3734 15.7309 68.3734 12.438 66.3382 10.4071C64.3029 8.37608 61.0032 8.37608 58.9679 10.4071C56.9327 12.438 56.9327 15.7309 58.9679 17.7619C61.0032 19.7929 64.3029 19.7929 66.3382 17.7619Z" fill="white"/>
<defs>
<linearGradient id="paint0_linear" x1="1.86289" y1="64.746" x2="66.8985" y2="64.746" gradientUnits="userSpaceOnUse">
<stop stop-color="#5C8BFC"/>
<stop offset="1" stop-color="#84B0FF"/>
</linearGradient>
<linearGradient id="paint1_linear" x1="-0.00202804" y1="66.6279" x2="68.7634" y2="66.6279" gradientUnits="userSpaceOnUse">
<stop stop-color="#5C8BFC"/>
<stop offset="1" stop-color="#84B0FF"/>
</linearGradient>
<linearGradient id="paint2_linear" x1="48.8598" y1="75.0513" x2="96.1219" y2="27.5791" gradientUnits="userSpaceOnUse">
<stop stop-color="#FFB300"/>
<stop offset="1" stop-color="#FF8E37"/>
</linearGradient>
</defs>
</svg>

<svg width="77" height="67" fill="none" xmlns="http://www.w3.org/2000/svg"><path d="M64.198 13.127H24.896c-1.982 0-3.357-5.422-5.408-5.422H4.592a2.71 2.71 0 00-2.704 2.711v51.605a2.71 2.71 0 002.704 2.711h59.606a2.71 2.71 0 002.704-2.711V15.839a2.71 2.71 0 00-2.704-2.712z" fill="url(#paint0_linear)"/><path fill-rule="evenodd" clip-rule="evenodd" d="M4.569 66.626h59.629a4.553 4.553 0 004.546-4.605V15.84c0-2.524-2.052-4.58-4.57-4.58H25.083c-.326-.281-.932-1.216-1.282-1.8l-.024-.038c-1.066-1.697-2.252-3.585-4.311-3.585H4.569C2.05 5.836 0 7.893 0 10.416v51.629c0 2.524 2.051 4.58 4.569 4.58zm-.84-56.21c0-.467.373-.84.84-.84H19.3c.35.28.98 1.261 1.352 1.869l.047.074c1.037 1.641 2.198 3.478 4.196 3.478h39.278c.467 0 .84.374.84.842v46.206a.837.837 0 01-.84.84H4.57a.837.837 0 01-.84-.84V10.416z" fill="url(#paint1_linear)"/><path d="M63.82 22.813H4.854c-.555 0-1.017.471-1.017 1.037v37.925c0 .566.462 1.038 1.017 1.038H63.82c.555 0 1.017-.472 1.017-1.038V23.85c0-.566-.462-1.038-1.017-1.038z" fill="#FBF8F6"/><path d="M44.236 38.46l-3.039 3.025 5.088 5.066-6.1 6.074-5.089-5.066-3.816 3.8a4.4 4.4 0 01-6.195.023l.07.07c-1.695-1.688-1.695-4.456.024-6.167l24.71-24.6a14.108 14.108 0 01-1.578-6.52C48.31 6.332 54.694 0 62.538 0s14.228 6.355 14.228 14.165c0 7.809-6.384 14.164-14.228 14.164-2.355 0-4.593-.563-6.548-1.571l-5.653 5.628 4.075 4.057-6.101 6.074-4.075-4.057z" fill="url(#paint2_linear)"/><path d="M66.338 17.762a5.193 5.193 0 000-7.355 5.22 5.22 0 00-7.37 0 5.193 5.193 0 000 7.355 5.22 5.22 0 007.37 0z" fill="#fff"/><defs><linearGradient id="paint0_linear" x1="1.863" y1="64.746" x2="66.898" y2="64.746" gradientUnits="userSpaceOnUse"><stop stop-color="#5C8BFC"/><stop offset="1" stop-color="#84B0FF"/></linearGradient><linearGradient id="paint1_linear" x1="-.002" y1="66.628" x2="68.763" y2="66.628" gradientUnits="userSpaceOnUse"><stop stop-color="#5C8BFC"/><stop offset="1" stop-color="#84B0FF"/></linearGradient><linearGradient id="paint2_linear" x1="48.86" y1="75.051" x2="96.122" y2="27.579" gradientUnits="userSpaceOnUse"><stop stop-color="#FFB300"/><stop offset="1" stop-color="#FF8E37"/></linearGradient></defs></svg>
